client/svg/fullscreen.svg

<svg xmlns="http://www.w3.org/2000/svg" width="512" height="512" viewBox="-32 0 512 512"><path d="M64 384h319.938v-256h-319.938v256zM127.969 192h192v128h-192v-128zM32 96.031h95.969v-32h-127.969v127.969h32v-95.969zM32 320h-32v127.969h127.969v-31.969h-95.969v-96zM319.969 64.031v32h95.969v95.969h32v-127.969h-127.969zM415.938 416h-95.969v31.969h127.969v-127.969h-32v96z"></path></svg>

<svg xmlns="http://www.w3.org/2000/svg" width="512" height="512" viewBox="-32 0 512 512"><path d="M64 384h319.938V128H64v256zm63.97-192h192v128h-192V192zM32 96.03h95.97v-32H0V192h32V96.03zM32 320H0v127.97h127.97V416H32v-96zM319.97 64.03v32h95.968V192h32V64.03h-127.97zM415.937 416h-95.97v31.97h127.97V320h-32v96z"/></svg>
